X: 1
T: Ceo Na GCnoc
M: 4/4
L: 1/8
R: reel
K: Ador
g|: eA A2 efge | dG G2 (3BAG Bd | eA A2 efge | dBGA BAAg |
eA A2 efge | dG G2 DGBd | eA A2 efge | dBGA BABd :|
|:ea a2 agag | eaag e2 dg | ea a2 agaf | gedB BAAg |
 ea a2 agag | eaaf g3a | agbg abge | dBgd BA A2 :|
